!!!OTL: HOTTE HOTTE REITERPFERD
!!!ARE: Europa, Mitteleuropa, Deutschland, Erfurt, Stotternheim
!!!SCT: K0363
!!!YEM: Copyright 1995, estate of Helmut Schaffrath.
**kern
*ICvox
*Ivox
*M2/4
*k[f#]
*G:
=1
{8g
8g
8b
8b
=2
8dd
8dd
8b
8b}
=3
{8g
8g
8b
8b
=4
8dd
8dd
8b
8r}
=5
{8g
8a
8b
8cc
=6
8dd
8dd
8b
8r}
=7
{8g
8a
8b
8cc
=8
8dd
8dd
8b
8r}
=9
{8g
8a
8b
8cc
=10
4dd
4b}
=11
{8g
8a
8b
8cc
=12
4dd
4b}
=13
{8dd
8dd
8b
8g
=14
8ee
8ee
4dd}
=15
{8cc
8cc
8b
8b
=16
8a
8a
8g
8r}
=17
{4dd
8b
8a
=18
4g
4r}
==
!!!AGN: Kinder -, Schaukel -, Knierreiter -, Spiel - Lied
!!!ONB: ESAC (Essen Associative Code) Database: KINDER
!!!AMT: simple duple
!!!AIN: vox
!!!EED: Helmut Schaffrath
!!!EEV: 1.0
*-
